X: 16480
T: Hagan's
R: reel
M: 4/4
K: Eminor
(3B,CD|:"Em" E/D/E GE B,E FG/F/|E2 GB"D" AFDF|"Em" E2 GE BEGA|"G" BcdB"D" AFGF|
"Em" E2 GE BEGF|"C" E2 GB"D" AFDB,|"Em" EG G/F/G BG G/F/G|"G" BDGB"D" AFDF:|
|:"Em" Beed ef/e/ de|"Bm" fBAB fBdA|"Em" Beef ef/e/ dA|"G" BdGB"D" AFGA|"Em" Be f/e/d e2 de|
"Bm" fB B/A/B fBFA|"Em" B/c/d ef"C" gedc||1 "G" BGdB"D" AFGA:|2 "G" BcdB"D" AFDB,||"Em" E8||

